X:4929
T:Paddy Fahy's
O:england
R:reel
M:C|
K:Gmix
B2dB c2dc|BGGF DEFD|BcdB c2dc|BGGF DGGA|
B2dB c2dc|BGGF DEFD|BcdB cedc|BGAF DGG2:|
|:dg~g2 dgBg|dgba gedB|cf~f2 cfAf|cfag fedc|
dg~g2 dgBg|dgba gde^f|gbag ^fdeg|^fdcA AGG2:|
